src/xmb/retrosystem/menu_frameskip.svg

<svg xmlns="http://www.w3.org/2000/svg" xml:space="preserve" width="64" height="64"><path d="M33.335 30.89c-.745-.497-8.496-6.669-8.68-6.764a1.132 1.132 0 0 0-1.651.992l-.004.014v13.733a1.135 1.135 0 0 0 1.656 1.009c.185-.095 7.937-6.27 8.682-6.766.414-.276.662-.692.662-1.108s-.249-.833-.665-1.11Zm12 0c-.745-.497-8.496-6.669-8.68-6.764a1.132 1.132 0 0 0-1.651.992l-.004.014v13.733a1.135 1.135 0 0 0 1.656 1.009c.185-.095 7.937-6.27 8.682-6.766.414-.276.662-.692.662-1.108s-.249-.833-.665-1.11Z" style="fill:#e6e6e6;fill-opacity:1;stroke:#1a1a1a;stroke-width:.71875;stroke-miterlimit:4;stroke-dasharray:none" transform="translate(-16.5 -12.522)scale(1.3913)"/></svg>

<?xml version="1.0" encoding="UTF-8" standalone="no"?>
<svg
   xmlns:dc="http://purl.org/dc/elements/1.1/"
   xmlns:cc="http://creativecommons.org/ns#"
   xmlns:rdf="http://www.w3.org/1999/02/22-rdf-syntax-ns#"
   xmlns:svg="http://www.w3.org/2000/svg"
   xmlns="http://www.w3.org/2000/svg"
   xmlns:sodipodi="http://sodipodi.sourceforge.net/DTD/sodipodi-0.dtd"
   xmlns:inkscape="http://www.inkscape.org/namespaces/inkscape"
   version="1.1"
   id="Calque_1"
   x="0px"
   y="0px"
   width="64px"
   height="64px"
   viewBox="0 0 64 64"
   enable-background="new 0 0 64 64"
   xml:space="preserve"
   sodipodi:docname="menu_frameskip.svg"
   inkscape:export-filename="/media/alfrix/DATOS/xmb/menu_frameskip.png"
   inkscape:export-xdpi="384"
   inkscape:export-ydpi="384"
   inkscape:version="0.92.3 (2405546, 2018-03-11)"><metadata
   id="metadata8"><rdf:RDF><cc:Work
       rdf:about=""><dc:format>image/svg+xml</dc:format><dc:type
         rdf:resource="http://purl.org/dc/dcmitype/StillImage" /></cc:Work></rdf:RDF></metadata><defs
   id="defs6" /><sodipodi:namedview
   pagecolor="#ffffff"
   bordercolor="#666666"
   borderopacity="1"
   objecttolerance="10"
   gridtolerance="10"
   guidetolerance="10"
   inkscape:pageopacity="0"
   inkscape:pageshadow="2"
   inkscape:window-width="1920"
   inkscape:window-height="1001"
   id="namedview4"
   showgrid="true"
   inkscape:zoom="5.2149125"
   inkscape:cx="-27.810439"
   inkscape:cy="47.26817"
   inkscape:window-x="-9"
   inkscape:window-y="-9"
   inkscape:window-maximized="1"
   inkscape:current-layer="Calque_1"><inkscape:grid
     type="xygrid"
     id="grid815" /></sodipodi:namedview>

<g
   id="g821"
   transform="matrix(1.3913043,0,0,1.3913043,-16.499999,-12.521738)"
   style="fill:#e6e6e6;fill-opacity:1;stroke:#1a1a1a;stroke-width:0.71875;stroke-miterlimit:4;stroke-dasharray:none"><path
     sodipodi:nodetypes="ccscsssccsc"
     style="fill:#e6e6e6;fill-opacity:1;stroke:#1a1a1a;stroke-width:0.71875;stroke-miterlimit:4;stroke-dasharray:none"
     inkscape:connector-curvature="0"
     d="M 33.335,30.89 C 32.59,30.393 24.839,24.221 24.655,24.126 24.499,24.046 24.322,24 24.135,24 23.514,24 23.013,24.499 23.004,25.118 23.003,25.123 23,25.127 23,25.132 v 13.733 c 0,0.627 0.508,1.135 1.135,1.135 0.188,0 0.364,-0.046 0.521,-0.126 0.185,-0.095 7.937,-6.27 8.682,-6.766 C 33.752,32.832 34,32.416 34,32 34,31.584 33.751,31.167 33.335,30.89 Z"
     id="Resume" /><path
     id="path817"
     d="M 45.335,30.89 C 44.59,30.393 36.839,24.221 36.655,24.126 36.499,24.046 36.322,24 36.135,24 35.514,24 35.013,24.499 35.004,25.118 35.003,25.123 35,25.127 35,25.132 v 13.733 c 0,0.627 0.508,1.135 1.135,1.135 0.188,0 0.364,-0.046 0.521,-0.126 0.185,-0.095 7.937,-6.27 8.682,-6.766 C 45.752,32.832 46,32.416 46,32 46,31.584 45.751,31.167 45.335,30.89 Z"
     inkscape:connector-curvature="0"
     style="fill:#e6e6e6;fill-opacity:1;stroke:#1a1a1a;stroke-width:0.71875;stroke-miterlimit:4;stroke-dasharray:none"
     sodipodi:nodetypes="ccscsssccsc" /></g></svg>
